X:1
T:[ID 1-63]
T:[ID 1-63]
T:Bezeichnung standardisiert: Menuett Menuet
T:Urheber unbekannt Datum in der hier transkribierten schriftlichen Quelle: vermutlich vor 1767
C:Urheber unbekannt
C:Datum in der hier transkribierten schriftlichen Quelle: vermutlich vor 1767
L:1/8
M:3/4
K:D
V:1 treble 
V:1
 d2 fdad | b2 d2 c2 | B2 gfed | c2 Bc A2 | G2 BGdB | e2 G2 F2 | E2 d2 c2 | d6 :: d2 fdad | %9
 c2 ecac | B2 dcBA | ^G2 FG E2 | e2 eeee | eagfed | c2 BAB"^[sic]"G | A6 | AB _c2 c2 | %17
 B"^\203*"cdB G2 | Bc d2 d2 | cdec A2 | ef g2 g2 | f2 ef d2 | ef"^a" G2 c2 | d6 :| %24
 !fermata!fedc d2 | egfedc | d6 :| %27

